img/jhonny.svg

<svg width="221" height="58" viewBox="0 0 221 58" fill="none" xmlns="http://www.w3.org/2000/svg">
<path d="M0.226685 45V37.1067H10.2V1.80001H19.2667V37.9067C19.2667 40.2889 18.6267 42.0667 17.3467 43.24C16.0667 44.4133 14.2711 45 11.96 45H0.226685Z" fill="#717171"/>
<path d="M27.5292 45V0.200012H36.3825V17.5867H36.5959C37.627 15.88 39.0136 14.6 40.7559 13.7467C42.4981 12.8578 44.5603 12.4133 46.9425 12.4133C50.9603 12.4133 54.1425 13.64 56.4892 16.0933C58.8714 18.5111 60.0625 21.7645 60.0625 25.8533V45H51.2092V27.5067C51.2092 25.16 50.5692 23.3822 49.2892 22.1733C48.0447 20.9289 46.2136 20.3067 43.7959 20.3067C41.3781 20.3067 39.5292 20.9289 38.2492 22.1733C37.0047 23.3822 36.3825 25.16 36.3825 27.5067V45H27.5292Z" fill="#717171"/>
<path d="M82.2992 45.64C78.8147 45.64 75.7747 44.9645 73.1792 43.6133C70.6192 42.2267 68.6281 40.2889 67.2058 37.8C65.7836 35.3111 65.0725 32.36 65.0725 28.9467C65.0725 25.5689 65.7659 22.6356 67.1525 20.1467C68.5747 17.6578 70.5836 15.7378 73.1792 14.3867C75.7747 13.0356 78.8325 12.36 82.3525 12.36C85.837 12.36 88.8592 13.0356 91.4192 14.3867C93.9792 15.7378 95.9525 17.6578 97.3392 20.1467C98.7259 22.6356 99.4192 25.5867 99.4192 29C99.4192 32.3778 98.7259 35.3289 97.3392 37.8533C95.9525 40.3422 93.9614 42.2622 91.3659 43.6133C88.8059 44.9645 85.7836 45.64 82.2992 45.64ZM82.2992 37.96C84.9659 37.96 87.0103 37.16 88.4325 35.56C89.8547 33.9245 90.5658 31.72 90.5658 28.9467C90.5658 26.1733 89.8547 24.0045 88.4325 22.44C87.0103 20.84 84.9659 20.04 82.2992 20.04C79.597 20.04 77.517 20.84 76.0592 22.44C74.637 24.0045 73.9258 26.1733 73.9258 28.9467C73.9258 31.72 74.637 33.9245 76.0592 35.56C77.517 37.16 79.597 37.96 82.2992 37.96Z" fill="#717171"/>
<path d="M107.001 45V21.7467H102.628V13H111.588V18.2267H113.828C115.072 16.3778 116.636 14.9556 118.521 13.96C120.405 12.9289 122.752 12.4133 125.561 12.4133C130.005 12.4133 133.436 13.64 135.854 16.0933C138.308 18.5111 139.534 21.7645 139.534 25.8533V45H130.681V27.5067C130.681 25.16 130.041 23.3822 128.761 22.1733C127.516 20.9289 125.685 20.3067 123.268 20.3067C120.85 20.3067 119.001 20.9289 117.721 22.1733C116.476 23.3822 115.854 25.16 115.854 27.5067V45H107.001Z" fill="#717171"/>
<path d="M148.626 45V21.7467H144.253V13H153.213V18.2267H155.453C156.697 16.3778 158.261 14.9556 160.146 13.96C162.03 12.9289 164.377 12.4133 167.186 12.4133C171.63 12.4133 175.061 13.64 177.479 16.0933C179.933 18.5111 181.159 21.7645 181.159 25.8533V45H172.306V27.5067C172.306 25.16 171.666 23.3822 170.386 22.1733C169.141 20.9289 167.31 20.3067 164.893 20.3067C162.475 20.3067 160.626 20.9289 159.346 22.1733C158.101 23.3822 157.479 25.16 157.479 27.5067V45H148.626Z" fill="#717171"/>
<path d="M187.962 57.8V50.7067H195.002L197.508 44.7333L183.695 13H193.082L202.042 34.5467H202.255L211.002 13H220.068L206.362 45L203.748 51.1867C202.859 53.2845 201.828 54.9022 200.655 56.04C199.482 57.2133 197.686 57.8 195.268 57.8H187.962Z" fill="#717171"/>
</svg>

<svg xmlns="http://www.w3.org/2000/svg" width="221" height="58" fill="none"><path fill="#111" d="M.227 45v-7.893H10.2V1.8h9.067v36.107c0 2.382-.64 4.16-1.92 5.333C16.067 44.413 14.27 45 11.96 45H.227ZM27.53 45V.2h8.852v17.387h.214c1.031-1.707 2.418-2.987 4.16-3.84 1.742-.89 3.804-1.334 6.187-1.334 4.017 0 7.2 1.227 9.546 3.68 2.382 2.418 3.574 5.672 3.574 9.76V45h-8.854V27.507c0-2.347-.64-4.125-1.92-5.334-1.244-1.244-3.075-1.866-5.493-1.866s-4.267.622-5.547 1.866c-1.244 1.21-1.867 2.987-1.867 5.334V45H27.53ZM82.3 45.64c-3.485 0-6.525-.675-9.12-2.027-2.56-1.386-4.552-3.324-5.974-5.813-1.422-2.489-2.133-5.44-2.133-8.853 0-3.378.693-6.311 2.08-8.8 1.422-2.49 3.43-4.41 6.026-5.76 2.596-1.351 5.653-2.027 9.174-2.027 3.484 0 6.506.676 9.066 2.027 2.56 1.35 4.534 3.27 5.92 5.76 1.387 2.489 2.08 5.44 2.08 8.853 0 3.378-.693 6.329-2.08 8.853-1.386 2.49-3.378 4.41-5.973 5.76-2.56 1.352-5.582 2.027-9.067 2.027Zm0-7.68c2.666 0 4.71-.8 6.133-2.4 1.422-1.636 2.133-3.84 2.133-6.613 0-2.774-.711-4.942-2.133-6.507-1.423-1.6-3.467-2.4-6.134-2.4-2.702 0-4.782.8-6.24 2.4-1.422 1.564-2.133 3.733-2.133 6.507 0 2.773.711 4.978 2.133 6.613 1.458 1.6 3.538 2.4 6.24 2.4ZM107.001 45V21.747h-4.373V13h8.96v5.227h2.24c1.244-1.85 2.808-3.271 4.693-4.267 1.884-1.031 4.231-1.547 7.04-1.547 4.444 0 7.875 1.227 10.293 3.68 2.454 2.418 3.68 5.672 3.68 9.76V45h-8.853V27.507c0-2.347-.64-4.125-1.92-5.334-1.245-1.244-3.076-1.866-5.493-1.866-2.418 0-4.267.622-5.547 1.866-1.245 1.21-1.867 2.987-1.867 5.334V45h-8.853ZM148.626 45V21.747h-4.373V13h8.96v5.227h2.24c1.244-1.85 2.808-3.271 4.693-4.267 1.884-1.031 4.231-1.547 7.04-1.547 4.444 0 7.875 1.227 10.293 3.68 2.454 2.418 3.68 5.672 3.68 9.76V45h-8.853V27.507c0-2.347-.64-4.125-1.92-5.334-1.245-1.244-3.076-1.866-5.493-1.866-2.418 0-4.267.622-5.547 1.866-1.245 1.21-1.867 2.987-1.867 5.334V45h-8.853ZM187.962 57.8v-7.093h7.04l2.506-5.974L183.695 13h9.387l8.96 21.547h.213L211.002 13h9.066l-13.706 32-2.614 6.187c-.889 2.098-1.92 3.715-3.093 4.853-1.173 1.173-2.969 1.76-5.387 1.76h-7.306Z"/></svg>
